failure.svg

<?xml version="1.0" encoding="UTF-8" standalone="no"?>
<svg
   width="27"
   height="95"
   xml:space="preserve"
   overflow="hidden"
   version="1.1"
   id="svg11"
   xmlns="http://www.w3.org/2000/svg"
   xmlns:svg="http://www.w3.org/2000/svg"><defs
     id="defs5"><clipPath
       id="clip0"><rect
         x="1480"
         y="628"
         width="100"
         height="382"
         id="rect2" /></clipPath></defs><g
     id="g177"
     transform="translate(0.00389378,-287.64148)"><g
       clip-path="url(#clip0)"
       transform="translate(-1480,-628)"
       id="g9"><path
         d="M 1503.73,987.785 H 1483 V 1010 h 20.73 v -22.215 m 3,-72.14 H 1480 l 6.68,66.644 h 13.37 l 6.68,-66.644 m 73.04,-217.566 -0.46,-0.458 -0.92,-0.916 -1.85,-1.603 h -0.23 l -2.53,-1.603 -3.46,-1.603 -3.91,-0.916 -4.15,-0.458 -2.31,0.229 -1.84,1.374 -1.84,2.977 -0.92,-0.916 -0.23,-0.458 -1.39,-2.061 -0.92,-4.352 0.92,-5.725 2.08,-5.496 2.53,-3.207 4.38,-2.748 8.29,-2.977 h -2.53 l -6.45,0.916 -8.07,2.977 -7.83,5.955 -3,3.893 -1.61,2.977 -0.69,3.664 -0.46,6.184 -0.23,-0.916 -0.92,-2.29 -0.93,-3.207 -0.46,-3.664 v -1.374 l 1.62,-9.848 4.14,-9.389 3.69,-8.932 -0.23,-8.932 -2.53,-7.099 -2.77,-4.123 -4.38,-2.748 -7.83,-3.206 0.92,0.687 1.84,2.29 2.31,3.436 2.3,4.809 1.38,6.412 -1.15,6.184 -2.99,6.87 -5.07,8.474 -2.08,3.435 -0.92,2.977 -0.23,2.52 v 1.374 l 0.46,4.809 -0.69,-1.374 -1.38,-3.664 -0.23,-0.229 -1.15,-5.497 v -7.099 l 0.23,-7.558 -1.85,-4.58 -5.76,-3.893 -11.52,-4.81 2.31,2.29 4.14,5.726 3.46,7.099 -0.46,7.1 -1.61,2.519 -1.85,2.061 -3.22,3.664 -2.08,3.436 -0.92,3.893 -0.23,4.122 0.46,3.894 0.69,5.267 1.16,3.435 1.84,3.206 3.69,4.581 -1.39,-1.603 -1.84,-1.603 -2.07,-1.833 -5.53,-3.435 -7.15,-1.603 -6.45,0.229 -3.45,1.145 -1.85,2.748 -1.61,5.497 1.84,-1.145 3.92,-1.603 h 4.61 l 3.69,4.351 0.46,2.748 0.46,4.122 0.23,3.894 0.23,3.893 v 0.229 l 2.53,9.39 4.84,7.099 8.07,4.351 11.98,1.604 -6.68,-3.207 -5.3,-4.122 -4.15,-5.038 -3,-7.1 -1.38,-4.809 -0.23,-0.229 -0.46,-2.977 v -0.458 -2.52 l 0.92,-4.122 0.92,1.832 2.54,4.81 3.68,5.496 4.61,4.58 4.15,1.603 3.22,-1.374 1.62,-4.351 0.46,-7.1 -1.15,-5.038 -0.23,-0.458 -1.85,-3.893 -0.23,-0.458 -2.76,-4.81 -2.54,-5.496 -2.07,-6.412 -0.69,-3.894 0.69,-3.435 2.3,-4.351 v 2.061 l 0.46,4.809 2.08,6.642 4.38,7.099 3.91,3.435 3.92,2.978 3.46,3.206 2.53,4.58 1.61,5.039 v 0.458 l 0.23,2.748 -1.38,2.977 -2.99,4.122 h 0.92 l 2.3,-0.458 3.23,-1.603 3.68,-3.435 3,-4.351 1.38,-3.436 0.46,-4.351 -0.46,-6.87 1.38,2.748 2.08,7.099 v 10.306 l -5.07,11.68 -3.92,3.664 -5.07,3.206 -4.37,2.061 -1.85,0.917 9.91,-1.375 8.53,-3.206 6.68,-5.267 4.61,-7.329 1.38,-7.328 -0.69,-6.642 -0.46,-6.183 0.92,-4.351 0.23,-1.604 2.07,-2.748 3.23,-1.374 4.38,-0.229 6.22,0.916 0.92,0.229 0.69,0.229"
         fill-rule="evenodd"
         id="path7" /></g></g></svg>

<svg width="100" height="382" xmlns="http://www.w3.org/2000/svg" xmlns:xlink="http://www.w3.org/1999/xlink" xml:space="preserve" overflow="hidden"><defs><clipPath id="clip0"><rect x="1480" y="628" width="100" height="382"/></clipPath></defs><g clip-path="url(#clip0)" transform="translate(-1480 -628)"><path d="M1503.73 987.785 1483 987.785 1483 1010 1503.73 1010 1503.73 987.785M1506.73 915.645 1480 915.645 1486.68 982.289 1500.05 982.289 1506.73 915.645M1579.77 698.079 1579.31 697.621 1578.39 696.705 1576.54 695.102 1576.31 695.102 1573.78 693.499 1570.32 691.896 1566.41 690.98 1562.26 690.522 1559.95 690.751 1558.11 692.125 1556.27 695.102 1555.35 694.186 1555.12 693.728 1553.73 691.667 1552.81 687.315 1553.73 681.59 1555.81 676.094 1558.34 672.887 1562.72 670.139 1571.01 667.162 1568.48 667.162 1562.03 668.078 1553.96 671.055 1546.13 677.01 1543.13 680.903 1541.52 683.88 1540.83 687.544 1540.37 693.728 1540.14 692.812 1539.22 690.522 1538.29 687.315 1537.83 683.651 1537.83 682.277 1539.45 672.429 1543.59 663.04 1547.28 654.108 1547.05 645.176 1544.52 638.077 1541.75 633.954 1537.37 631.206 1529.54 628 1530.46 628.687 1532.3 630.977 1534.61 634.413 1536.91 639.222 1538.29 645.634 1537.14 651.818 1534.15 658.688 1529.08 667.162 1527 670.597 1526.08 673.574 1525.85 676.094 1525.85 677.468 1526.31 682.277 1525.62 680.903 1524.24 677.239 1524.01 677.01 1522.86 671.513 1522.86 664.414 1523.09 656.856 1521.24 652.276 1515.48 648.383 1503.96 643.573 1506.27 645.863 1510.41 651.589 1513.87 658.688 1513.41 665.788 1511.8 668.307 1509.95 670.368 1506.73 674.032 1504.65 677.468 1503.73 681.361 1503.5 685.483 1503.96 689.377 1504.65 694.644 1505.81 698.079 1507.65 701.285 1511.34 705.866 1509.95 704.263 1508.11 702.66 1506.04 700.827 1500.51 697.392 1493.36 695.789 1486.91 696.018 1483.46 697.163 1481.61 699.911 1480 705.408 1481.84 704.263 1485.76 702.66 1490.37 702.66 1494.06 707.011 1494.52 709.759 1494.98 713.881 1495.21 717.775 1495.44 721.668 1495.44 721.897 1497.97 731.287 1502.81 738.386 1510.88 742.737 1522.86 744.341 1516.18 741.134 1510.88 737.012 1506.73 731.974 1503.73 724.874 1502.35 720.065 1502.12 719.836 1501.66 716.859 1501.66 716.401 1501.66 713.881 1502.58 709.759 1503.5 711.591 1506.04 716.401 1509.72 721.897 1514.33 726.477 1518.48 728.08 1521.7 726.706 1523.32 722.355 1523.78 715.255 1522.63 710.217 1522.4 709.759 1520.55 705.866 1520.32 705.408 1517.56 700.598 1515.02 695.102 1512.95 688.69 1512.26 684.796 1512.95 681.361 1515.25 677.01 1515.25 679.071 1515.71 683.88 1517.79 690.522 1522.17 697.621 1526.08 701.056 1530 704.034 1533.46 707.24 1535.99 711.82 1537.6 716.859 1537.6 717.317 1537.83 720.065 1536.45 723.042 1533.46 727.164 1534.38 727.164 1536.68 726.706 1539.91 725.103 1543.59 721.668 1546.59 717.317 1547.97 713.881 1548.43 709.53 1547.97 702.66 1549.35 705.408 1551.43 712.507 1551.43 722.813 1546.36 734.493 1542.44 738.157 1537.37 741.363 1533 743.424 1531.15 744.341 1541.06 742.966 1549.59 739.76 1556.27 734.493 1560.88 727.164 1562.26 719.836 1561.57 713.194 1561.11 707.011 1562.03 702.66 1562.26 701.056 1564.33 698.308 1567.56 696.934 1571.94 696.705 1578.16 697.621 1579.08 697.85 1579.77 698.079" fill-rule="evenodd"/></g></svg>
